icons/config-o.svg

<svg width="24" height="24" viewBox="0 0 24 24" xmlns="http://www.w3.org/2000/svg">
    <path fill-rule="evenodd"
        d="M21.3162 10.2715L18.1641 4.75539C17.5439 3.6699 16.3895 3 15.1393 3H8.86153C7.61132 3 6.45696 3.6699 5.83669 4.75539L2.68461 10.2715C2.07258 11.3426 2.07258 12.6574 2.68461 13.7285L5.83668 19.2446C6.45696 20.3301 7.61132 21 8.86153 21H15.1393C16.3895 21 17.5439 20.3301 18.1641 19.2446L21.3162 13.7285C21.9282 12.6574 21.9282 11.3426 21.3162 10.2715ZM19.5797 12.7362C19.8404 12.28 19.8404 11.72 19.5797 11.2638L16.4276 5.74767C16.1635 5.28533 15.6718 5 15.1393 5L8.86153 5C8.32903 5 7.83736 5.28533 7.57317 5.74766L4.4211 11.2638C4.16042 11.72 4.16042 12.28 4.4211 12.7362L7.57317 18.2523C7.83736 18.7147 8.32903 19 8.86153 19H15.1393C15.6718 19 16.1634 18.7147 16.4276 18.2523L19.5797 12.7362ZM15.0004 12C15.0004 13.6569 13.6573 15 12.0004 15C10.3436 15 9.00041 13.6569 9.00041 12C9.00041 10.3431 10.3436 9 12.0004 9C13.6573 9 15.0004 10.3431 15.0004 12ZM17.0004 12C17.0004 14.7614 14.7618 17 12.0004 17C9.23898 17 7.00041 14.7614 7.00041 12C7.00041 9.23858 9.23898 7 12.0004 7C14.7618 7 17.0004 9.23858 17.0004 12Z" />
</svg>

<svg xmlns="http://www.w3.org/2000/svg" width="24" height="24" viewBox="0 0 24 24">
    <path
        d="M21.316 10.271l-3.152-5.516C17.544 3.67 16.39 3 15.14 3H8.862c-1.25 0-2.405.67-3.025 1.755l-3.152 5.516c-.612 1.072-.612 2.386 0 3.457l3.152 5.517C6.457 20.33 7.61 21 8.862 21h6.277c1.25 0 2.405-.67 3.025-1.755l3.152-5.517c.612-1.07.612-2.385 0-3.457zm-1.736 2.465c.26-.456.26-1.016 0-1.472l-3.152-5.516C16.163 5.285 15.672 5 15.139 5H8.862c-.533 0-1.025.285-1.289.748l-3.152 5.516c-.26.456-.26 1.016 0 1.472l3.152 5.516c.264.463.756.748 1.289.748h6.277c.533 0 1.024-.285 1.289-.748l3.152-5.516zM15 12c0 1.657-1.343 3-3 3-1.656 0-3-1.343-3-3s1.344-3 3-3c1.657 0 3 1.343 3 3zm2 0c0 2.761-2.238 5-5 5-2.761 0-5-2.239-5-5s2.239-5 5-5c2.762 0 5 2.239 5 5z" />
</svg>
